X: 32334
T: Piña's
R: polka
M: 2/4
K: Gmajor
|:Bg gB|gB cA|GD B>A|GD DG|
Bd ga|gd Bd|eG ef|ed BA|
Bg gB|gB cA|GD B>A|GD DG|
EB cA|Bf gB|cg BA|1 G2 G2:|2 Gd Bd||
|:eG fG|gG g>e|dG de|dB Gd|
eG fG|gG g>e|dB GB|Ad Bd|
eG fG|gG g>e|dG de|dB GD|
EB cA|Bf gB|cg BA|1 Gd Bd:|2 G2 G2||

